X: 26586
T: Mick Leahy's Fancy
R: jig
M: 6/8
K: Gmajor
D|GBd gBe|dGc BGE|DEG BAG|cBA dcA|
GBd gBe|dGc BGE|DEG Adc|AGF G2|
GBd gBe|dGc BGE|DEG B2 G|c2A dcA|
GBd gBe|dGc BGE|DEG Adc|AGF G2|
|:D|GAB cde|daf gdc|Bcd =fdc|B/c/dB cAd|
[1 GAB cde|daf gdc|B/c/dB cAF|AGF G2:|
[2 GDG A/G/FA|BGB cAc|d/e/fa gdB|cAF G3||

